X: 1700
T: Selmek Sazsemâîsi
C: Mehmet Ağa
O: Turkey
F: http://compmusic.upf.edu/node/140
N: selmek--sazsemaisi--aksaksemai----mehmet_aga
N: makam= selmek
N: form= sazsemaisi
N: usul= aksaksemai = 10/8
M: 10/8
L: 1/16
K: C _1/4B ^f  
Q: 1/4=144
%%MIDI tuningsystem comma53
G4 F2G3ABA GFG4z2  | A4 G2AB AGA2 B2GA Bcd2  | 
w:  1. HANE  |   | 
e2d2 c2B3cBA GBA4z2  | d4 d2e3de2 f2g4z2  | \
w:   |   | 
g4 a2g2 =f2e2 d2c4e2  | 
w:  MÜLÂZİME  | 
cdc2 e2d2 c2B2 A2B4z2  | d4 c2B3AB2 c2Bc BAG2  | 
w:   |   | 
c4 B2A3GA2 B2G4z2  | B4 A2B3cBA GAB4z2  | \
w:   |  2. HANE  | 
c4 B2A3GB2 c2d4z2  | 
w:   | 
e=fe2 d2e2 f2d2 e2cd c2d2  | B4 c2d3edc Bcd4z2  | 
w:   |   | 
g4 a2g2 =f2e2 d2c4e2  | cdc2 e2d2 c2B2 A2B4z2  | \
w:  MÜLÂZİME  |   | 
d4 c2B3AB2 c2Bc BAG2  | 
w:   | 
c4 B2A3GA2 B2G4z2  | g4 f2g3a_ba gfg4z2  | \
w:   |  3. HANE  | 
f4 e2f3gfe ded4c2  | 
w:   | 
B4 g2f3de2 d2^c4z2  | d4 ^c2d3ef2 efg4z2  | \
w:   |   | 
g4 a2g2 =f2e2 d2c4e2  | 
w:  MÜLÂZİME  | 
cdc2 e2d2 c2B2 A2B4z2  | d4 c2B3AB2 c2Bc BAG2  | 
w:   |   | 
c4 B2A3GA2 B2G4z2  | z12  | e4Bcc2e4  | \
w:   |  |  4. HANE  | 
ded2c2B4z2  | d3cB2c2d4  | 
w:   |   | 
c3BA2B4z2  | G4A2BcB2c2  | ded2e2d4e2  | \
w:   |   |   | 
e4Bcc2e4  | 
w:  4. HANE  | 
ded2c2B4z2  | d3cB2c2d4  | c3BA2B4z2  | \
w:   |   |   | 
G4A2BcB2c2  | 
w:   | 
ded2e2d4z2  | z20  | g4 a2g2 =f2e2 d2c4e2  | \
w:   |  |  MÜLÂZİME  | 
cdc2 e2d2 c2B2 A2B4z2  | 
w:   | 
d4 c2B3AB2 c2Bc BAG2  | c4 B2A3GA2 B2G4z2  | |


